X:1
T:South Bend, CMD
T:South Bend, CMD
T:William Augustine Ogden, 1885
T:Public Domain Courtesy of the Cyber Hymnal™
C:William Augustine Ogden, 1885
Z:Public Domain
Z:Courtesy of the Cyber Hymnal™
%%score ( 1 2 ) ( 3 4 )
L:1/8
Q:1/4=100
M:6/8
K:Eb
V:1 treble 
V:2 treble 
V:3 bass 
V:4 bass 
V:1
 [EG] | [EG]2 [EG] [EG]2 [FA] | [GB]2 [GB] ([GB][Ac])[Bd] | [ce]2 [ce] [Bd]2 [Ac] | %4
 [GB]3- [GB]2 [GB] | [Ac]2 [DF] [DF]2 [Ac] | [GB]2 [EG] [EG]2 [Ge] | (df)[Fe] [Fd]2 [Ec] | %8
 [DB]3- [DB]2 [FA] | [EG]2 [EG] [EG]2 [FA] | [GB]2 [GB] ([GB][Ac])[Bd] | [ce]2 [ce] [Bd]2 [Ac] | %12
 [GB]3- [GB]2 [GB] | [Ac]2 [DF] [DF]2 [Ac] | [GB]2 [EG] !fermata![Ge]2 [FA] | %15
 ([EG][GB])[FA] [EG]2 [DF] | E3- E2 |] %17
V:2
 x | x6 | x6 | x6 | x6 | x6 | x6 | F2 x4 | x6 | x6 | x6 | x6 | x6 | x6 | x6 | x6 | E3- E2 |] %17
V:3
 [E,B,] | [E,B,]2 [E,B,] [E,B,]2 [E,B,] | [E,E]2 [E,E] [E,E]2 [E,E] | [A,E]2 [A,E] [A,E]2 [A,E] | %4
 [E,E]3- [E,E]2 [E,E] | [B,,D]2 [B,,B,] [B,,B,]2 [B,,D] | [E,E]2 [E,B,] [E,B,]2 [E,B,] | %7
 (B,D)[F,C] [F,B,]2 [F,=A,] | [B,,B,]3- [B,,B,]2 [B,,B,] | [E,B,]2 [E,B,] [E,B,]2 [E,B,] | %10
 [E,E]2 [E,E] [E,E]2 [E,E] | [A,E]2 [A,E] [A,E]2 [A,E] | [E,E]3- [E,E]2 [E,E] | %13
 [B,,D]2 [B,,B,] [B,,B,]2 [B,,D] | [E,E]2 [E,B,] !fermata![C,C]2 [F,C] | (B,E)[A,C] B,2 [B,,A,] | %16
 [E,G,]3- [E,G,]2 |] %17
V:4
 x | x6 | x6 | x6 | x6 | x6 | x6 | F,2 x4 | x6 | x6 | x6 | x6 | x6 | x6 | x6 | G,2 B,2 x2 | x5 |] %17

